app/assets/images/heroicons/micro/speaker-x-mark.svg

<svg width="16" height="16" viewBox="0 0 16 16" fill="none" xmlns="http://www.w3.org/2000/svg">
<path d="M7.55724 2.06583C7.82667 2.18682 8 2.45467 8 2.75001V13.25C8 13.5454 7.82667 13.8132 7.55724 13.9342C7.28782 14.0552 6.97247 14.0068 6.75173 13.8106L3.58984 11H2C1.44772 11 1 10.5523 1 10V6C1 5.44772 1.44772 5 2 5H3.58987L6.75173 2.18946C6.97247 1.99324 7.28782 1.94484 7.55724 2.06583Z" fill="black"/>
<path d="M11.2803 5.71967C10.9874 5.42678 10.5126 5.42678 10.2197 5.71967C9.92678 6.01256 9.92678 6.48744 10.2197 6.78033L11.4393 8L10.2197 9.21967C9.92678 9.51256 9.92678 9.98744 10.2197 10.2803C10.5126 10.5732 10.9874 10.5732 11.2803 10.2803L12.5 9.06066L13.7197 10.2803C14.0126 10.5732 14.4874 10.5732 14.7803 10.2803C15.0732 9.98744 15.0732 9.51256 14.7803 9.21967L13.5607 8L14.7803 6.78033C15.0732 6.48744 15.0732 6.01256 14.7803 5.71967C14.4874 5.42678 14.0126 5.42678 13.7197 5.71967L12.5 6.93934L11.2803 5.71967Z" fill="black"/>
</svg>

<svg xmlns="http://www.w3.org/2000/svg" viewBox="0 0 16 16" fill="currentColor" aria-hidden="true" data-slot="icon">
  <path d="M7.557 2.066A.75.75 0 0 1 8 2.75v10.5a.75.75 0 0 1-1.248.56L3.59 11H2a1 1 0 0 1-1-1V6a1 1 0 0 1 1-1h1.59l3.162-2.81a.75.75 0 0 1 .805-.124ZM11.28 5.72a.75.75 0 1 0-1.06 1.06L11.44 8l-1.22 1.22a.75.75 0 1 0 1.06 1.06l1.22-1.22 1.22 1.22a.75.75 0 1 0 1.06-1.06L13.56 8l1.22-1.22a.75.75 0 0 0-1.06-1.06L12.5 6.94l-1.22-1.22Z"/>
</svg>
